X: 195
T: Miss Turners Fancy
B: 204 Favourite Country Dances
N: Published by Straight & Skillern, London ca.1775
F: http://imslp.org/wiki/204_Favourite_Country_Dances_(Various) p.98 #195
Z: 2014 John Chambers <jc:trillian.mit.edu>
N: What does the H.b ("H." with a raised "b" above the dot) mean in the dance description?
M: 6/8
L: 1/8
K: G
% - - - - - - - - - - - - - - - - - - - - - - - - -
|:\
B2c d2d | efg d3 | edc dcB | cBA G2D |\
B2c d2d | efg d3 | edd dcB | cBA G3 :|
|:\
B3 B3 | BAc B3 | B2c d2c | B2A B2G |\
B3 B3 | BAc B3 | B2c d2c | B2A G2z :|
% - - - - - - - - - - - - - - - - - - - - - - - - -
%%begintext align
%% First Cu. set and hands 3 round with the 2d Wo.
%% .| the same with the 2d Man .|. Cross over 2 Cu. :|.
%% lead up to the Top & cast off :|: R.t H.b across with the 3d
%% Cu. ||. left H.b back again with the 2d Cu. :||. lead out on both
%% sides and turn your Partner :||:
%%endtext

%%sep 1 1 500
%%sep 1 1 500
